X:1
T:Partita III Corrente
T:BWV 827
T:J. S. Bach
%%score { ( 1 4 5 ) | ( 2 3 ) }
L:1/8
M:3/4
K:C
V:1 treble nm="Harp"
V:4 treble 
V:5 treble 
V:2 bass 
V:3 bass 
V:1
 z/ d/c/B/ | c>e a>e b>d | c/e/^f/^g/ a>e b>d | c/A/B/c/ d/e/f/e/ d/c/B/A/ | ^G/A/B/G/ E4- | %5
 E/D/C/B,/ C/A,/C/E/ A/^G/^F/E/ | c/B/A/G/ F/D/F/A/ d/^c/B/A/ | f/e/d/c/ B/G/B/d/ g/^f/e/d/ | %8
 b/a/g/f/ e/c/e/g/ c'/b/a/g/ | a>d e/d/^c/d/ e/d/c/d/ | g>B c/4B/4 c7/2- | c>B c/B/A/B/ c/B/A/B/ | %12
 e>^G A/4G/4 A7/2- | A/d/e/f/ e/d/c/B/ A/^G/A/B/ | E/B/^G/F/ E/c/A/F/ E/d/B/F/ | %15
 E/c/A/F/ E/B/^G/F/ E/c/A/F/ | E/d/B/F/ E/c/A/F/ E/B/^G/F/ | %17
 E3/2c/4d/4 e/4d/4e/4d/4e/4d/4e/4d/4 e/4d/4e/4d/4 c/d/ | e2- e/d/c/B/ c/e/c/A/ | %19
 ^G/B/G/E/ D/F/E/D/ C/E/C/A,/ | ^G,/B,/E- E2 z/ d/c/B/ | c>e a>e b>d | c/e/^f/^g/ a>e b>d | %23
 c/A/B/c/ d/e/f/e/ d/c/B/A/ | ^G/A/B/G/ E4- | E/D/C/B,/ C/A,/C/E/ A/^G/^F/E/ | %26
 c/B/A/G/ F/D/F/A/ d/^c/B/A/ | f/e/d/c/ B/G/B/d/ g/^f/e/d/ | b/a/g/f/ e/c/e/g/ c'/b/a/g/ | %29
 a>d e/d/^c/d/ e/d/c/d/ | g>B c/4B/4 c7/2- | c>B c/B/A/B/ c/B/A/B/ | e>^G A/4G/4 A7/2- | %33
 A/d/e/f/ e/d/c/B/ A/^G/A/B/ | E/B/^G/F/ E/c/A/F/ E/d/B/F/ | E/c/A/F/ E/B/^G/F/ E/c/A/F/ | %36
 E/d/B/F/ E/c/A/F/ E/B/^G/F/ | E3/2c/4d/4 e/4d/4e/4d/4e/4d/4e/4d/4 e/4d/4e/4d/4 c/d/ | %38
 e2- e/d/c/B/ c/e/c/A/ | ^G/B/G/E/ D/F/E/D/ C/E/C/A,/ | ^G,/B,/E- E2 z/ B/c/A/ | ^G>E B>D E>B, | %42
 C/E/F/D/ E>A ^G>d | c/e/a/g/ f/e/d/c/ B/A/^G/F/ | E/d/c/B/ c/4B/4 c7/2- | %45
 c/B/A/G/ A/F/A/c/ f/e/d/c/ | d/c/B/A/ B/G/B/d/ g/f/e/d/ | e/d/c/B/ c/A/c/e/ a/g/f/e/ | %48
 d/c/B/A/ G/B/c/d/ c/B/A/G/ | c>F G/F/E/F/ G/F/E/F/ | B>D E/4D/4 E7/2- | E>D E/D/C/D/ E/D/C/D/ | %52
 G>B, C/4B,/4 C7/2- | C/F/G/A/ G/F/E/D/ C/B,/C/D/ | G,>B, C/4B,/4CG,/ D/4C/4DG,/ | E>G, D>G, E>G, | %56
 F>G, E>G, F>G, | G/E/F/G/ A/F/E/D/ B/G/A/B/ | c/A/G/F/ d/B/c/d/ e/c/B/A/ | %59
 f/d/e/f/ g/e/d/c/ a/f/g/a/ | c/4B/4c/4B/4c/4B/4c/4B/4 c/4B/4G/A/B/ c/d/e/f/ | %61
 g/f/a/g/ f/e/d/c/ e/d/c/B/ | c2- c/G/c/d/ e/c/d/e/ | A/^c/e/g/ _b>c d>e | %64
 f/4e/4f3/2- f/A/d/e/ f/d/e/f/ | B/^d/^f/a/ c'>d e>f | g2- g/e/^f/^g/ a/g/f/g/ | %67
 a>d ^c/d/e/f/ g/f/g/e/ | f/d/e/f/ e/c/d/e/ d/B/c/d/ | c/A/^G/A/ d/e/f/e/ d/c/B/A/ | %70
 ^G/^F/G/F/ E2- E/f/e/d/ | c/e/^g/a/ B/d/^f/=g/ A/c/e/=f/ | ^G/B/^d/e/ ^F/A/e/^c/ G/B/=d/B/ | %73
 c/A/F/E/ B/^G/E/D/ A/^F/^D/C/ | B,/A/^G/^F/ E/G/B/d/ d/4c/4d/4c/4d/4c/4B/ | e>B c/4B/4cA/ E>^G | %76
 A2- A2 z/ B/c/A/ | ^G>E B>D E>B, | C/E/F/D/ E>A ^G>d | c/e/a/g/ f/e/d/c/ B/A/^G/F/ | %80
 E/d/c/B/ c/4B/4 c7/2- | c/B/A/G/ A/F/A/c/ f/e/d/c/ | d/c/B/A/ B/G/B/d/ g/f/e/d/ | %83
 e/d/c/B/ c/A/c/e/ a/g/f/e/ | d/c/B/A/ G/B/c/d/ c/B/A/G/ | c>F G/F/E/F/ G/F/E/F/ | %86
 B>D E/4D/4 E7/2- | E>D E/D/C/D/ E/D/C/D/ | G>B, C/4B,/4 C7/2- | C/F/G/A/ G/F/E/D/ C/B,/C/D/ | %90
 G,>B, C/4B,/4CG,/ D/4C/4DG,/ | E>G, D>G, E>G, | F>G, E>G, F>G, | G/E/F/G/ A/F/E/D/ B/G/A/B/ | %94
 c/A/G/F/ d/B/c/d/ e/c/B/A/ | f/d/e/f/ g/e/d/c/ a/f/g/a/ | %96
 c/4B/4c/4B/4c/4B/4c/4B/4 c/4B/4G/A/B/ c/d/e/f/ | g/f/a/g/ f/e/d/c/ e/d/c/B/ | %98
 c2- c/G/c/d/ e/c/d/e/ | A/^c/e/g/ _b>c d>e | f/4e/4f3/2- f/A/d/e/ f/d/e/f/ | B/^d/^f/a/ c'>d e>f | %102
 g2- g/e/^f/^g/ a/g/f/g/ | a>d ^c/d/e/f/ g/f/g/e/ | f/d/e/f/ e/c/d/e/ d/B/c/d/ | %105
 c/A/^G/A/ d/e/f/e/ d/c/B/A/ | ^G/^F/G/F/ E2- E/f/e/d/ | c/e/^g/a/ B/d/^f/=g/ A/c/e/=f/ | %108
 ^G/B/^d/e/ ^F/A/e/^c/ G/B/=d/B/ | c/A/F/E/ B/^G/E/D/ A/^F/^D/C/ | %110
 B,/A/^G/^F/ E/G/B/d/ d/4c/4d/4c/4d/4c/4B/ | e>B c/4B/4cA/ E>^G | A2- A2 z2 |] %113
V:2
 z2 | A,, z C, z E, z | z/ ^G,/A,/B,/ C/E/D/E/ G,/E/D/E/ | A,/C/D/E/ F>^G, A,>F, | %4
 E,2- E,/^G,/B,/G,/ E,/G,/D,/G,/ | C,>E, A,,>B,, C,>E, | A,>A,, D,>E, F,>A, | D>D, G,>A, B,>D | %8
 G>G, C>D E>C | F>F, F>F, F2- | F/D/E/F/ E/D/C/B,/ A,/G,/F,/E,/ | D,>D,, D,>D,, D,2- | %12
 D,/B,,/C,/D,/ C,/B,,/A,,/G,,/ F,,/E,,/D,,/C,,/ | B,,,>^G,, A,,>C,, F,,>D,, | E,,2 z z/ A,/ ^G,>D | %15
 C2 z z/ B,/ C>A, | A,/4^G,/4A,/4G,/4A,/4G,/4A,/4G,/4 z z/ A,/ G,/D/B,/G,/ | %17
 A,/C/A,/E,/ G,/4F,/4G,/4F,/4G,/4F,/4G,/4F,/4 G,/4F,/4G,/4F,/4 E,/F,/ | %18
 E,/^G,/B,/G,/ z z/ G,/ A,>C | B,2 z z/ ^G,/ A,>^F, | E,4 z2 | A,, z C, z E, z | %22
 z/ ^G,/A,/B,/ C/E/D/E/ G,/E/D/E/ | A,/C/D/E/ F>^G, A,>F, | E,2- E,/^G,/B,/G,/ E,/G,/D,/G,/ | %25
 C,>E, A,,>B,, C,>E, | A,>A,, D,>E, F,>A, | D>D, G,>A, B,>D | G>G, C>D E>C | F>F, F>F, F2- | %30
 F/D/E/F/ E/D/C/B,/ A,/G,/F,/E,/ | D,>D,, D,>D,, D,2- | %32
 D,/B,,/C,/D,/ C,/B,,/A,,/G,,/ F,,/E,,/D,,/C,,/ | B,,,>^G,, A,,>C,, F,,>D,, | E,,2 z z/ A,/ ^G,>D | %35
 C2 z z/ B,/ C>A, | A,/4^G,/4A,/4G,/4A,/4G,/4A,/4G,/4 z z/ A,/ G,/D/B,/G,/ | %37
 A,/C/A,/E,/ G,/4F,/4G,/4F,/4G,/4F,/4G,/4F,/4 G,/4F,/4G,/4F,/4 E,/F,/ | %38
 E,/^G,/B,/G,/ z z/ G,/ A,>C | B,2 z z/ ^G,/ A,>^F, | E,4 z2 | E,, z E, z ^G, z | %42
 z/ ^G,/A,/B,/ C/E,/D,/C,/ B,,/D,/C,/B,,/ | A,,>C, D,>F, ^G,>B, | %44
 E/E,/^F,/^G,/ A,/C/E/C/ A,/C/=G,/^B,/ | F,2- F,/E,/D,/C,/ D,>F, | B,,>D, G,>F, E,>G, | %47
 C,>E, A,>G, F,>A, | B,,/E/D/C/ B,/D/E/F/ G,/D/C/B,/ | E>A,, A,>A,, A,2- | %50
 A,/F,/G,/A,/ G,/F,/E,/D,/ C,/B,,/A,,/G,,/ | F,,/A,,/G,,/F,,/ F,>F,, F,2- | %52
 F,/D,/E,/F,/ E,/D,/C,/B,,/ A,,/G,,/F,,/E,,/ | D,,>B,, C,>G,, A,,>F,, | %54
 G,,/F,/E,/D,/ G,,/E,/D,/C,/ G,,/D,/C,/B,,/ | G,,/C,/B,,/A,,/ B,,/G,,/A,,/B,,/ C,/G,,/B,,/C,/ | %56
 D,/G,,/A,,/B,,/ C,/E,/D,/C,/ B,,/A,,/G,,/F,,/ | E,,>E, F,>F,, G,,>G, | A,>A,, B,,>B, C>C, | %59
 D,>D E>E, F,>F | G,/B,/D/F/ E>G, F,>D | C>E, A,>F, G,>G,, | C,/C,,/E,,/G,,/ C,2- C,/E,/F,/G,/ | %63
 ^C,/E,/G,- G,/E,/F,/G,/ F,/E,/D,/C,/ | D,/D,,/F,,/A,,/ D,2- D,/F,/G,/A,/ | %65
 ^D,/^F,/A,- A,/F,/G,/A,/ G,/F,/E,/D,/ | E,/E,,/G,,/B,,/ E,2- E,/C,/D,/E,/ | %67
 F,/E,/F,/G,/ A,/B,/^C/D/ E>A, | D>A, C>A, B,>E, | A,>C, F,>^G,, A,,>F,, | %70
 E,,2- E,,^F,,/^G,,/ A,,/B,,/C,/D,/ | E,>E,, E,>E,, E,>E,, | E,>E,, E,>E,, E,>E,, | %73
 E,>C, D,>B,, C,>A,, | D,,2- D,,/E,,/^F,,/^G,,/ A,,/G,,/A,,/B,,/ | %75
 C,/B,,/C,/D,/ E,/D,/C,/D,/ E,>E,, | z2 A,2 z2 | E,, z E, z ^G, z | %78
 z/ ^G,/A,/B,/ C/E,/D,/C,/ B,,/D,/C,/B,,/ | A,,>C, D,>F, ^G,>B, | %80
 E/E,/^F,/^G,/ A,/C/E/C/ A,/C/=G,/^B,/ | F,2- F,/E,/D,/C,/ D,>F, | B,,>D, G,>F, E,>G, | %83
 C,>E, A,>G, F,>A, | B,,/E/D/C/ B,/D/E/F/ G,/D/C/B,/ | E>A,, A,>A,, A,2- | %86
 A,/F,/G,/A,/ G,/F,/E,/D,/ C,/B,,/A,,/G,,/ | F,,/A,,/G,,/F,,/ F,>F,, F,2- | %88
 F,/D,/E,/F,/ E,/D,/C,/B,,/ A,,/G,,/F,,/E,,/ | D,,>B,, C,>G,, A,,>F,, | %90
 G,,/F,/E,/D,/ G,,/E,/D,/C,/ G,,/D,/C,/B,,/ | G,,/C,/B,,/A,,/ B,,/G,,/A,,/B,,/ C,/G,,/B,,/C,/ | %92
 D,/G,,/A,,/B,,/ C,/E,/D,/C,/ B,,/A,,/G,,/F,,/ | E,,>E, F,>F,, G,,>G, | A,>A,, B,,>B, C>C, | %95
 D,>D E>E, F,>F | G,/B,/D/F/ E>G, F,>D | C>E, A,>F, G,>G,, | C,/C,,/E,,/G,,/ C,2- C,/E,/F,/G,/ | %99
 ^C,/E,/G,- G,/E,/F,/G,/ F,/E,/D,/C,/ | D,/D,,/F,,/A,,/ D,2- D,/F,/G,/A,/ | %101
 ^D,/^F,/A,- A,/F,/G,/A,/ G,/F,/E,/D,/ | E,/E,,/G,,/B,,/ E,2- E,/C,/D,/E,/ | %103
 F,/E,/F,/G,/ A,/B,/^C/D/ E>A, | D>A, C>A, B,>E, | A,>C, F,>^G,, A,,>F,, | %106
 E,,2- E,,^F,,/^G,,/ A,,/B,,/C,/D,/ | E,>E,, E,>E,, E,>E,, | E,>E,, E,>E,, E,>E,, | %109
 E,>C, D,>B,, C,>A,, | D,,2- D,,/E,,/^F,,/^G,,/ A,,/G,,/A,,/B,,/ | %111
 C,/B,,/C,/D,/ E,/D,/C,/D,/ E,>E,, | z2 A,2 z2 |] %113
V:3
 x2 | x6 | x6 | x6 | x6 | x6 | x6 | x6 | x6 | x6 | x6 | x6 | x6 | x6 | x6 | x6 | x6 | x6 | %18
 z2 E,4- | E,/^G,/B,/G,/ E,4 | z2 E,,2 z2 | x6 | x6 | x6 | x6 | x6 | x6 | x6 | x6 | x6 | x6 | x6 | %32
 x6 | x6 | x6 | x6 | x6 | x6 | z2 E,4- | E,/^G,/B,/G,/ E,4 | z2 E,,2 x2 | x6 | x6 | x6 | x6 | x6 | %46
 x6 | x6 | x6 | x6 | x6 | x6 | x6 | x6 | x6 | x6 | x6 | x6 | x6 | x6 | x6 | x6 | x6 | x6 | x6 | %65
 x6 | x6 | x6 | x6 | x6 | x6 | x6 | x6 | x6 | x6 | x6 | A,,4 z2 | x6 | x6 | x6 | x6 | x6 | x6 | %83
 x6 | x6 | x6 | x6 | x6 | x6 | x6 | x6 | x6 | x6 | x6 | x6 | x6 | x6 | x6 | x6 | x6 | x6 | x6 | %102
 x6 | x6 | x6 | x6 | x6 | x6 | x6 | x6 | x6 | x6 | A,,4 x2 |] %113
V:4
 x2 | x6 | x6 | x6 | x6 | x6 | x6 | x6 | x6 | x6 | x6 | x6 | x6 | x6 | x6 | x6 | x6 | x6 | x6 | %19
 x6 | ^G,2- G,2 z2 | x6 | x6 | x6 | x6 | x6 | x6 | x6 | x6 | x6 | x6 | x6 | x6 | x6 | x6 | x6 | %36
 x6 | x6 | x6 | x6 | ^G,2- G,2 x2 | x6 | x6 | x6 | x6 | x6 | x6 | x6 | x6 | x6 | x6 | x6 | x6 | %53
 x6 | x6 | x6 | x6 | x6 | x6 | x6 | x6 | x6 | x6 | x6 | x6 | x6 | x6 | x6 | x6 | x6 | x6 | x6 | %72
 x6 | x6 | x6 | x6 | AE/C/- C2 z2 | x6 | x6 | x6 | x6 | x6 | x6 | x6 | x6 | x6 | x6 | x6 | x6 | %89
 x6 | x6 | x6 | x6 | x6 | x6 | x6 | x6 | x6 | x6 | x6 | x6 | x6 | x6 | x6 | x6 | x6 | x6 | x6 | %108
 x6 | x6 | x6 | x6 | AE/C/- C2 x2 |] %113
V:5
 x2 | x6 | x6 | x6 | x6 | x6 | x6 | x6 | x6 | x6 | x6 | x6 | x6 | x6 | x6 | x6 | x6 | x6 | x6 | %19
 x6 | z/ B,3/2- B,2 z2 | x6 | x6 | x6 | x6 | x6 | x6 | x6 | x6 | x6 | x6 | x6 | x6 | x6 | x6 | x6 | %36
 x6 | x6 | x6 | x6 | z/ B,3/2- B,2 x2 | x6 | x6 | x6 | x6 | x6 | x6 | x6 | x6 | x6 | x6 | x6 | x6 | %53
 x6 | x6 | x6 | x6 | x6 | x6 | x6 | x6 | x6 | x6 | x6 | x6 | x6 | x6 | x6 | x6 | x6 | x6 | x6 | %72
 x6 | x6 | x6 | x6 | z E- E2 z2 | x6 | x6 | x6 | x6 | x6 | x6 | x6 | x6 | x6 | x6 | x6 | x6 | x6 | %90
 x6 | x6 | x6 | x6 | x6 | x6 | x6 | x6 | x6 | x6 | x6 | x6 | x6 | x6 | x6 | x6 | x6 | x6 | x6 | %109
 x6 | x6 | x6 | z E- E2 x2 |] %113

